public/img/print.svg

<svg height="24" viewBox="0 0 24 24" width="24" xmlns="http://www.w3.org/2000/svg"><path d="m22.5 7.8h-21v9.45h4.2v4.2h12.6v-4.2h4.2zm-6.3 11.55h-8.4v-5.25h8.4zm3.15-7.35a1.05 1.05 0 1 1 1-1.05 1 1 0 0 1 -1 1.05zm-1.05-9.45h-12.6v4.2h12.6z" fill="#5f6369"/></svg>

<svg id="bd6e00eb-f63d-46fa-8393-ee23596fb656" data-name="Layer 1" xmlns="http://www.w3.org/2000/svg" width="24" height="24" viewBox="0 0 24 24">
  <defs>
    <style>
      .a044b361-b4a7-4662-a598-3811c87b953d {
        fill: #5f6369;
      }
    </style>
  </defs>
  <path class="a044b361-b4a7-4662-a598-3811c87b953d" d="M22.5,7.8H1.5v9.45H5.7v4.2H18.3v-4.2h4.2ZM16.2,19.35H7.8V14.1h8.4ZM19.35,12a1.05,1.05,0,1,1,1-1.05A1,1,0,0,1,19.35,12ZM18.3,2.55H5.7v4.2H18.3Z"/>
</svg>
